X:4470
T:Mungo Kelly
O:england
C:Trad
R:Reel
M:C|
K:Em
L:1/8
B3 A|: GEBE GEDE|GEBE G2BA|GEBE G2Bd|efge d2BA :|
Bdef g2fg|eaaf gfed|Bdef g2fg|afge d2BA|
Bdef g2fg|eaaf g2fg|afge defg|afge dBAB|


